X:1
T:Title
L:1/8
M:4/4
K:F
V:1 treble nm="Grand Piano"
V:1
 z4 z2 A2 | d2 d2 c2 c2 | B2 cB A2 E2 | F2 G2 A2 B2 | A6 G2 | c2 c2 B2 B2 | A2 A2 G2 E2 | %7
 F2 D2 E2 F2 | E6 F2 | F2 E2 D2 EF | G3 G G2 G2 | G2 F2 E2 FG | A3 A A2 AB | A2 GF E2 A2 | D6 F2 | %15
 F2 D2 F2 A2 | G3 ^F G2 E2 | E2 ^C2 E2 G2 | F3 E F2 D2 | D2 B,2 D2 F2 | E3 _E =E2 E2 | %21
 B2 B2 A2 _A2 | A6 D2 | A2 A2 G2 ^F2 | G3 A G2 EF | G2 G2 F2 E2 | F3 G F2 D2 | F2 F2 E2 ^CD | %28
 E3 F E2 E2 | BAGF E2 A2 | D6 z2 |] %31

